app/dist/common/images/powerhouse-energy-plc.svg

<svg height="18" viewBox="0 0 18 18" width="18" xmlns="http://www.w3.org/2000/svg"><path d="m0 0h18v18h-18z" fill="#f0f3fa"/><path d="m13.5 12v-2.4h-3v2.4h-1.5v-6h1.5v2.37h3v-2.37h1.5v6z" fill="#51bae8"/><path d="m8.5 8.09v-.02c0-1.22-1-2.07-2.66-2.07h-2.84v6h1.6v-1.8h1.09c1.56 0 2.81-.72 2.81-2.11zm-1.55.03c0 .51-.45.88-1.21.88h-1.15v-1.8h1.12c.76 0 1.24.3 1.24.9z" fill="#2a394f"/></svg>

<!-- by TradingView --><svg width="18" height="18" viewBox="0 0 18 18" xmlns="http://www.w3.org/2000/svg"><path fill="#F0F3FA" d="M0 0h18v18H0z"/><path d="M13.5 12V9.6h-3V12H9V6h1.5v2.37h3V6H15v6h-1.5Z" fill="#51BAE8"/><path d="M8.5 8.09v-.02C8.5 6.85 7.5 6 5.84 6H3v6h1.6v-1.8h1.09c1.56 0 2.81-.72 2.81-2.11Zm-1.55.03c0 .51-.45.88-1.21.88H4.59V7.2h1.12c.76 0 1.24.3 1.24.9v.02Z" fill="#2A394F"/></svg>
